vue/components/ui/templates/home-part/background.svg

<?xml version="1.0" encoding="UTF-8"?>
<svg width="1440px" height="898px" viewBox="0 0 1440 898" version="1.1" xmlns="http://www.w3.org/2000/svg" xmlns:xlink="http://www.w3.org/1999/xlink">
    <!-- Generator: Sketch 63.1 (92452) - https://sketch.com -->
    <title>Group 2</title>
    <desc>Created with Sketch.</desc>
    <defs>
        <linearGradient x1="-82.5457186%" y1="145.534104%" x2="146.14582%" y2="-37.6016171%" id="linearGradient-1">
            <stop stop-color="#6051F2" offset="0%"></stop>
            <stop stop-color="#6459F3" offset="24%"></stop>
            <stop stop-color="#6E6DF5" offset="60%"></stop>
            <stop stop-color="#7D8CF9" offset="100%"></stop>
        </linearGradient>
        <linearGradient x1="-82.5457186%" y1="145.613702%" x2="146.14582%" y2="-37.6746068%" id="linearGradient-2">
            <stop stop-color="#6051F2" offset="0%"></stop>
            <stop stop-color="#6459F3" offset="24%"></stop>
            <stop stop-color="#6E6DF5" offset="60%"></stop>
            <stop stop-color="#7D8CF9" offset="100%"></stop>
        </linearGradient>
        <linearGradient x1="-82.5457186%" y1="140.801493%" x2="146.14582%" y2="-33.2619699%" id="linearGradient-3">
            <stop stop-color="#6051F2" offset="0%"></stop>
            <stop stop-color="#6459F3" offset="24%"></stop>
            <stop stop-color="#6E6DF5" offset="60%"></stop>
            <stop stop-color="#7D8CF9" offset="100%"></stop>
        </linearGradient>
    </defs>
    <g id="Desktop" stroke="none" stroke-width="1" fill="none" fill-rule="evenodd">
        <g id="White-Desktop---Landing" fill-rule="nonzero">
            <g id="Group-2" transform="translate(-243.694125, -689.944773)">
                <path d="M485.120268,1272.81188 L355.940162,1272.81188 C350.348538,1272.92819 344.984277,1275.04707 340.822536,1278.78334 L141.572238,1453.99661 C130.922479,1463.92615 129.673072,1480.36572 138.69989,1491.79068 L555.114871,2000.8767 C559.449499,2006.34161 565.980961,2009.60734 572.953669,2009.7961 L573.785138,2009.7961 C580.779379,2009.60879 587.334635,2006.34499 591.699524,2000.8767 L1007.96333,1492.09303 C1016.99015,1480.66807 1015.74074,1464.2285 1005.09098,1454.29897 L805.991859,1278.78334 C801.837358,1275.03538 796.46856,1272.91471 790.874234,1272.81188 L485.120268,1272.81188 Z" id="Path" fill="url(#linearGradient-1)" transform="translate(573.331610, 1641.303987) rotate(-136.000000) translate(-573.331610, -1641.303987) "></path>
                <path d="M697.877947,157.856016 L581.477608,157.856016 C576.439163,157.960864 571.605587,159.870922 567.855567,163.238963 L388.317069,321.184175 C378.720889,330.135109 377.595085,344.954488 385.728882,355.253461 L760.947996,814.166749 C764.853799,819.093071 770.739105,822.036949 777.022004,822.207101 L777.771216,822.207101 C784.073518,822.038253 789.980263,819.096117 793.913334,814.166749 L1168.99623,355.526015 C1177.13002,345.227042 1176.00422,330.407663 1166.40804,321.456729 L987.005763,163.238963 C983.262266,159.860384 978.424602,157.948711 973.383722,157.856016 L697.877947,157.856016 Z" id="Path-Copy-2" fill="url(#linearGradient-2)" transform="translate(777.362555, 490.031558) rotate(-291.000000) translate(-777.362555, -490.031558) "></path>
                <path d="M1638.45706,1315.81899 L1567.76515,1315.81899 C1564.70521,1315.88104 1561.7697,1317.01148 1559.49225,1319.00481 L1450.45545,1412.48259 C1444.62753,1417.78008 1443.94381,1426.55074 1448.8836,1432.64605 L1676.76058,1704.24779 C1679.13264,1707.16337 1682.70688,1708.90566 1686.5226,1709.00636 L1686.97761,1709.00636 C1690.8051,1708.90643 1694.39237,1707.16517 1696.78099,1704.24779 L1924.57523,1432.80735 C1929.51503,1426.71204 1928.83131,1417.94139 1923.00338,1412.6439 L1814.04932,1319.00481 C1811.77583,1317.00525 1808.83783,1315.87385 1805.77642,1315.81899 L1638.45706,1315.81899 Z" id="Path-Copy" fill="url(#linearGradient-3)" transform="translate(1686.729419, 1512.412675) rotate(12.000000) translate(-1686.729419, -1512.412675) "></path>
            </g>
        </g>
    </g>
</svg>

<svg width="1440" height="898" viewBox="0 0 1440 898" xmlns="http://www.w3.org/2000/svg"><defs><linearGradient x1="-82.546%" y1="145.534%" x2="146.146%" y2="-37.602%" id="a"><stop stop-color="#6051F2" offset="0%"/><stop stop-color="#6459F3" offset="24%"/><stop stop-color="#6E6DF5" offset="60%"/><stop stop-color="#7D8CF9" offset="100%"/></linearGradient><linearGradient x1="-82.546%" y1="145.614%" x2="146.146%" y2="-37.675%" id="b"><stop stop-color="#6051F2" offset="0%"/><stop stop-color="#6459F3" offset="24%"/><stop stop-color="#6E6DF5" offset="60%"/><stop stop-color="#7D8CF9" offset="100%"/></linearGradient><linearGradient x1="-82.546%" y1="140.801%" x2="146.146%" y2="-33.262%" id="c"><stop stop-color="#6051F2" offset="0%"/><stop stop-color="#6459F3" offset="24%"/><stop stop-color="#6E6DF5" offset="60%"/><stop stop-color="#7D8CF9" offset="100%"/></linearGradient></defs><g fill-rule="nonzero" fill="none"><path d="M485.12 1272.812H355.94a23.357 23.357 0 00-15.117 5.971l-199.25 175.214c-10.65 9.93-11.9 26.369-2.873 37.794l416.415 509.086a23.584 23.584 0 0017.839 8.92h.831a23.735 23.735 0 0017.915-8.92l416.263-508.784c9.027-11.425 7.778-27.865-2.872-37.794l-199.1-175.516a23.206 23.206 0 00-15.117-5.971H485.12z" fill="url(#a)" transform="rotate(-136 312.107 1345.561)"/><path d="M697.878 157.856h-116.4a21.041 21.041 0 00-13.622 5.383L388.317 321.184c-9.596 8.951-10.722 23.77-2.588 34.07l375.219 458.913a21.247 21.247 0 0016.074 8.04h.75a21.384 21.384 0 0016.141-8.04l375.083-458.641c8.134-10.299 7.008-25.118-2.588-34.07L987.006 163.24a20.905 20.905 0 00-13.622-5.383H697.878z" fill="url(#b)" transform="rotate(69 1157.453 -32.23)"/><path d="M1638.457 1315.819h-70.692a12.964 12.964 0 00-8.273 3.186l-109.037 93.478c-5.827 5.297-6.511 14.068-1.571 20.163l227.877 271.602c2.372 2.915 5.946 4.658 9.762 4.758h.455c3.827-.1 7.414-1.84 9.803-4.758l227.794-271.44c4.94-6.096 4.256-14.867-1.572-20.164l-108.954-93.64a12.88 12.88 0 00-8.273-3.185h-167.319z" fill="url(#c)" transform="rotate(12 4847.075 8.143)"/></g></svg>
